X: 56
T:Cock of the North
M:6/8
L:1/8
S:AAB
R:Jig
K:A
d||:cdc cBA|cde f2 e|cdc cBA|B3 e2 d|!
cdc cBA|cde f2 e|cec BAB|1A3 e2 d:|2Acd efg||!
a2 e f2 e|a2 e f2 e|cec cBA|B3 efg|!
a2 e f2 e|a2 e f2 e|cec BAB|Acd efg|!
a2 e f2 e|a2 e f2 e|cdc cBA|B3 e2 d|!
cdc cBA|cde f2 e|cec BAB|~A3||
% <A name="D1X057"></A>

